X: 134
T: Cantantibus organis – Allegretto
C: Franciszek Walczyński
%%abc-version 2.0
%%abcx-abcm2ps-target-version 5.9.1 (29 Sep 2008)
%%abc-creator hum2abc beta
%%abcx-conversion-date 2021/10/04 07:38:41
%%abc-edited-by Kamil Watkowski
%%abcx-initial-encoding-date 2021-08-09
%%humdrum-veritas 2074351639
%%humdrum-veritas-data 1800867083
%%linebreak <none>
%%barnumbers 0
L: 1/8
M: 6/8
N: Derived from pl-kozmzk--mzk-m-346--036_walczynski-franciszek--cantantibus-organis-allegretto.krn
%%staves {1 2}
V: 1 clef=treble
V: 2 clef=bass
K: F
[V:1] z6 & z6 | 
[V:2] z6 & A,B,A,F,2D, | 
[V:1] z6 & z6 | 
[V:2] z6 & F,2E,D,3 | 
[V:1] ABAd2A & E3F3 | 
[V:2] A,3-A,3 & ^C,3D,3 | 
[V:1] G2FE3 & E2D^C3 | 
[V:2] B,2=B,^C3 & G,2^G,A,3 | 
[V:1] ABAe2A & z6 | 
[V:2] z6 & z6 | 
[V:1] fed=c2B & d^cA-A2G | 
[V:2] AGFD3 & D,E,F,^F,2G, | 
[V:1] AGFE2A & FED- D^C2 | 
[V:2] A,3-A,2G, & A,3A,,3 | 
[V:1] D3D2E & D3-D2z | 
[V:2] F,G,A,B,2z & D,E,F,G,2z | 
[V:1] F3E2x & D3D2^C | 
[V:2] z ^G,=B,A,2=G, & z =B,,^G,,A,,3 | 
[V:1] D3-D2E & D3-D2D | 
[V:2] F,G,A,B,2=B, & D,E,F,G,2^G, | 
[V:1] FEAD3 & D^C2D3 | 
[V:2] A,2=G,F,3 & A,2A,,D,3 | 
[V:1] dcBd2A & BAG^F3 | 
[V:2] z6 & D,,6- | 
[V:1] G3^F3 & B,=B,^CD3 | 
[V:2] z6 & D,,6- | 
[V:1] G^FED3 & _B,A,G,^F,3 | 
[V:2] z6 & D,,6- | 
[V:1] !fermata!D6 & G,3!fermata!^F,3 |]  
[V:2] B,,B,,E,!fermata!D,3 & !fermata!D,,6 |]  


